svg/fluentui-system-icons/ic_fluent_text_align_right_rotate_270_16_filled.svg

<svg width="16" height="16" viewBox="0 0 16 16" fill="none" xmlns="http://www.w3.org/2000/svg">
<path d="M3.75 11C3.33579 11 3 10.6642 3 10.25V1.75C3 1.33579 3.33579 1 3.75 1C4.16421 1 4.5 1.33579 4.5 1.75V10.25C4.5 10.6642 4.16421 11 3.75 11ZM7.75 15C7.33579 15 7 14.6642 7 14.25V1.75C7 1.33579 7.33579 1 7.75 1C8.16421 1 8.5 1.33579 8.5 1.75V14.25C8.5 14.6642 8.16421 15 7.75 15ZM11.75 7C11.3358 7 11 6.66421 11 6.25V1.75C11 1.33579 11.3358 1 11.75 1C12.1642 1 12.5 1.33579 12.5 1.75V6.25C12.5 6.66421 12.1642 7 11.75 7Z" fill="#212121"/>
</svg>

<svg xmlns="http://www.w3.org/2000/svg" width="16" height="16"><path d="M3.75 11a.75.75 0 0 1-.75-.75v-8.5a.75.75 0 0 1 1.5 0v8.5a.75.75 0 0 1-.75.75Zm4 4a.75.75 0 0 1-.75-.75V1.75a.75.75 0 0 1 1.5 0v12.5a.75.75 0 0 1-.75.75Zm4-8a.75.75 0 0 1-.75-.75v-4.5a.75.75 0 0 1 1.5 0v4.5a.75.75 0 0 1-.75.75Z"/></svg>
